public/img/icon-2.svg

<svg height="119" viewBox="0 0 119 119" width="119" xmlns="http://www.w3.org/2000/svg" xmlns:xlink="http://www.w3.org/1999/xlink"><filter id="a" height="112.6%" width="112.6%" x="-6.3%" y="-4.5%"><feOffset dx="0" dy="2" in="SourceAlpha" result="shadowOffsetOuter1"/><feGaussianBlur in="shadowOffsetOuter1" result="shadowBlurOuter1" stdDeviation="2"/><feColorMatrix in="shadowBlurOuter1" result="shadowMatrixOuter1" type="matrix" values="0 0 0 0 0   0 0 0 0 0   0 0 0 0 0  0 0 0 0.187528306 0"/><feMerge><feMergeNode in="shadowMatrixOuter1"/><feMergeNode in="SourceGraphic"/></feMerge></filter><g fill="none" fill-rule="evenodd" filter="url(#a)" transform="translate(4 2)"><circle cx="55.5" cy="55.5" fill="#fff" r="55.5"/><g fill-rule="nonzero" transform="translate(29 26)"><path d="m53 28.1638057c0-4.191575-2.5162581-7.7877492-6.1018969-9.3230286.6331678-1.2399793.9930955-2.64646.9930955-4.1388846 0-4.98345224-3.9878702-9.02327906-8.9072298-9.02327906-1.4015685 0-2.7269673.3289048-3.9066149.91306503-1.0481134-3.80178358-4.4900816-6.59167847-8.5773539-6.59167847s-7.5291249 2.78989489-8.5773539 6.59167847c-1.1796476-.58427732-2.5050464-.91306503-3.9066149-.91306503-4.91935958 0-8.90722983 4.03982682-8.90722983 9.02327906 0 1.4924246.35981219 2.8989053.99309551 4.1388846-3.58563883 1.5353965-6.10189688 5.1314536-6.10189688 9.3230286 0 5.4321397 4.22759093 9.8584795 9.53091974 10.1007379.73938916 2.712967 3.59465436 4.7354564 7.00691756 4.7354564 1.9339472 0 3.6882772-.6506671 4.9810814-1.7072841 1.2929197 1.056617 3.0472497 1.7072841 4.9810813 1.7072841s3.6882772-.6506671 4.9810813-1.7072841c1.2929198 1.056617 3.0472498 1.7072841 4.9810814 1.7072841 3.4122632 0 6.2675284-2.0224894 7.0069176-4.7355735 5.3033288-.2422584 9.5309197-4.6684811 9.5309197-10.1006208z" fill="#129b12"/><g fill="#097c09" transform="translate(25)"><path d="m1.29494309.01787772c-.10801626.00666032-.21557724.01460598-.32245528.02535598-.03278049.00327173-.06533334.00701087-.09788618.01063315-.11484553.01273641-.22912195.02745924-.34260163.04475272-.02128455.00315489-.04256911.00630978-.06373984.00969837-.13499187.02161684-.26930081.0456875-.4022439.07349728-.00022764 0-.00045528.00011685-.00068293.00011685 2.30260163.48071195 4.45848781 2.12709782 5.82434147 4.20231521.96725203 1.46959511 2.61982113 2.31674185 4.3435285 2.19638859.0114959-.00081794.022878-.00163587.0343739-.0024538-1.03201622-3.79404892-4.4214959-6.57818207-8.44643899-6.57818207-.14113821 0-.28125203.00420652-.42068293.0109837-.03528455.00175271-.07022764.00479076-.10551219.00689402z"/><path d="m21.9081789 18.8018668c.623626-1.2374184.9779512-2.6409945.9779512-4.1303369 0-4.97316033-3.9270569-9.00464403-8.7713984-9.00464403-.6012032 0-1.188065.06239674-1.7551219.18088043 4.0026341.83511142 7.0151382 4.468144 7.0151382 8.8237636 0 1.4893424-.3543252 2.8929185-.9779513 4.1303369 3.5309594 1.5322256 6.0088456 5.120856 6.0088456 9.3037745 0 5.4209212-4.163122 9.8380027-9.3854634 10.0797609-.5967643 2.219057-2.5936423 3.9742282-5.14460166 4.5355652.56147966.1237418 1.14959346.1901114 1.75591866.1901114 3.3602277 0 6.1719513-2.0183125 6.9000651-4.7257935 5.2224553-.2417581 9.3854634-4.6588396 9.3854634-10.0797608 0-4.1828017-2.4776585-7.771549-6.0088455-9.3036577z"/></g><path d="m19.6661146 40.2959602c-.8480928 1.596695-4.3627362 3.3820731-5.6661146 3.4835258.1433826.0341336.2887177.0639328.435273.0904812.0117147.0021672.0234293.0044698.035266.0065016.1485078.026142.2984799.0486269.4500384.0666418.0039049.0004064.0078097.0006773.0117146.0012191.136305.0159832.2740744.0274965.4125759.0365717.0336796.0021672.0674813.0043345.101405.0062308.1443589.0077207.2894499.0128678.4358832.0128678 1.8621435 0 3.5651628-.6275439 4.8862352-1.6649622l.2316087-.1869223-1.1795203-2.1481155z" fill="#009000"/><path d="m30.9640443 42.4629257 3.8567638-5.9940696c.3051208-.4741273.2127201-1.0966711-.2172759-1.4650661-.4591997-.3933612-1.1496931-.3677047-1.5774696.0587913l-2.8403566 2.8322235c-.3767283.3756432-1.0221312.0632783-.9504068-.459861l.8352272-6.0949698c.0892467-.6511916-.3995072-1.2409457-1.0652359-1.2852406l-.7825436-.0521183c-.5880467-.0391175-1.1113779.3647133-1.213591.9364044l-1.4909098 8.3427314c-.0829386.4640028-.6811482.6170214-.9828813.2516177l-4.6693289-5.655818c-.3231103-.3914053-.8695708-.5260156-1.3416202-.3305431l-.8175882.3383666c-.6472718.267955-.9033303 1.0385701-.5421383 1.6315457l4.7982926 7.8772329c.6948156 1.1407359.9813628 2.4790153.8076589 3.7983112-.6218062 4.7236706-1.3943038 9.1785808-4.5554343 12.8075361h16.4947443c-3.3838967-3.8848299-4.2186567-8.7159586-4.6665253-13.8102102-.1145956-1.3082509.2069961-2.6178824.9206189-3.7268641z" fill="#bf6101"/><path d="m34.8085156 36.4213414c.3259917-.475087.2273954-1.0988909-.2321381-1.4680316-.49061-.3941574-1.2283347-.3684489-1.6853721.0589103l-1.3552618 1.2673215-1.6793815 1.5705195c-.4024974.3764036-1.0920473.0634064-1.0154168-.4607918l.8923587-6.1073067c.09298-.6360241-.4013742-1.2121002-1.0850582-1.2819626l-2.5092126 14.4065159c-.0421842.186069-.0751328.3738673-.098097.563049-.0478005.3936963-.0541656.7929262-.0168488 1.1921561.4787536 5.1046782 1.370613 9.9455857 4.9859758 13.838279h3.6802617c-3.6153629-3.8926933-4.5072223-8.7336008-4.9857262-13.8381637-.1228085-1.3107838.2209056-2.6229509.983217-3.7342925z" fill="#9a4d01"/><path d="m24.807512 7c-2.5025754 0-4.656751 1.54136657-5.6333121 3.7585224-1.0088547-.7398127-2.23925-1.17596463-3.5686093-1.17596463-3.4199896 0-6.19248799 2.87720963-6.19248799 6.42636463 0 1.1710398.30337404 2.2679662.83071939 3.2134226-2.96961632.4738693-5.243822 3.1369068-5.243822 6.3512903 0 3.5491551 2.77249841 6.4263647 6.192488 6.4263647 3.4199896 0 19.807512-15.0244802 19.807512-18.5736353 0-3.54915511-2.7722669-6.4263647-6.192488-6.4263647z" fill="#28a528"/></g></g></svg>

<?xml version="1.0" encoding="UTF-8"?>
<svg width="119px" height="119px" viewBox="0 0 119 119" version="1.1" xmlns="http://www.w3.org/2000/svg" xmlns:xlink="http://www.w3.org/1999/xlink">
    <!-- Generator: Sketch 49.3 (51167) - http://www.bohemiancoding.com/sketch -->
    <title>Group 2</title>
    <desc>Created with Sketch.</desc>
    <defs>
        <filter x="-6.3%" y="-4.5%" width="112.6%" height="112.6%" filterUnits="objectBoundingBox" id="filter-1">
            <feOffset dx="0" dy="2" in="SourceAlpha" result="shadowOffsetOuter1"></feOffset>
            <feGaussianBlur stdDeviation="2" in="shadowOffsetOuter1" result="shadowBlurOuter1"></feGaussianBlur>
            <feColorMatrix values="0 0 0 0 0   0 0 0 0 0   0 0 0 0 0  0 0 0 0.187528306 0" type="matrix" in="shadowBlurOuter1" result="shadowMatrixOuter1"></feColorMatrix>
            <feMerge>
                <feMergeNode in="shadowMatrixOuter1"></feMergeNode>
                <feMergeNode in="SourceGraphic"></feMergeNode>
            </feMerge>
        </filter>
    </defs>
    <g id="Page-1" stroke="none" stroke-width="1" fill="none" fill-rule="evenodd">
        <g id="Home" transform="translate(-345.000000, -737.000000)">
            <g id="Group-2" filter="url(#filter-1)" transform="translate(349.000000, 739.000000)">
                <circle id="Oval-2" fill="#FFFFFF" cx="55.5" cy="55.5" r="55.5"></circle>
                <g id="tree" transform="translate(29.000000, 26.000000)" fill-rule="nonzero">
                    <path d="M53,28.1638057 C53,23.9722307 50.4837419,20.3760565 46.8981031,18.8407771 C47.5312709,17.6007978 47.8911986,16.1943171 47.8911986,14.7018925 C47.8911986,9.71844026 43.9033284,5.67861344 38.9839688,5.67861344 C37.5824003,5.67861344 36.2570015,6.00751824 35.0773539,6.59167847 C34.0292405,2.78989489 30.5872723,0 26.5,0 C22.4127277,0 18.9708751,2.78989489 17.9226461,6.59167847 C16.7429985,6.00740115 15.4175997,5.67861344 14.0160312,5.67861344 C9.09667162,5.67861344 5.10880137,9.71844026 5.10880137,14.7018925 C5.10880137,16.1943171 5.46861356,17.6007978 6.10189688,18.8407771 C2.51625805,20.3761736 0,23.9722307 0,28.1638057 C0,33.5959454 4.22759093,38.0222852 9.53091974,38.2645436 C10.2703089,40.9775106 13.1255741,43 16.5378373,43 C18.4717845,43 20.2261145,42.3493329 21.5189187,41.2927159 C22.8118384,42.3493329 24.5661684,43 26.5,43 C28.4338316,43 30.1882772,42.3493329 31.4810813,41.2927159 C32.7740011,42.3493329 34.5283311,43 36.4621627,43 C39.8744259,43 42.7296911,40.9775106 43.4690803,38.2644265 C48.7724091,38.0221681 53,33.5959454 53,28.1638057 Z" id="Shape" fill="#129B12"></path>
                    <g id="Group" transform="translate(25.000000, 0.000000)" fill="#097C09">
                        <path d="M1.29494309,0.0178777174 C1.18692683,0.0245380435 1.07936585,0.0324836957 0.972487805,0.0432336957 C0.939707317,0.0465054348 0.907154472,0.0502445652 0.874601626,0.0538668478 C0.759756098,0.0666032609 0.645479675,0.081326087 0.532,0.0986195652 C0.510715447,0.101774457 0.489430894,0.104929348 0.468260163,0.108317935 C0.333268293,0.129934783 0.19895935,0.154005435 0.0660162602,0.181815217 C0.0657886179,0.181815217 0.0655609756,0.181932065 0.0653333333,0.181932065 C2.36793496,0.662644022 4.52382114,2.30902989 5.8896748,4.38424728 C6.85692683,5.85384239 8.50949593,6.70098913 10.2332033,6.58063587 C10.2446992,6.57981793 10.2560813,6.579 10.2675772,6.57818207 C9.23556098,2.78413315 5.8460813,0 1.82113821,0 C1.68,0 1.53988618,0.00420652174 1.40045528,0.0109836957 C1.36517073,0.012736413 1.33022764,0.0157744565 1.29494309,0.0178777174 Z" id="Shape"></path>
                        <path d="M21.9081789,18.8018668 C22.5318049,17.5644484 22.8861301,16.1608723 22.8861301,14.6715299 C22.8861301,9.69836957 18.9590732,5.66688587 14.1147317,5.66688587 C13.5135285,5.66688587 12.9266667,5.72928261 12.3596098,5.8477663 C16.3622439,6.68287772 19.374748,10.3159103 19.374748,14.6715299 C19.374748,16.1608723 19.0204228,17.5644484 18.3967967,18.8018668 C21.9277561,20.3340924 24.4056423,23.9227228 24.4056423,28.1056413 C24.4056423,33.5265625 20.2425203,37.943644 15.0201789,38.1854022 C14.4234146,40.4044592 12.4265366,42.1596304 9.87557724,42.7209674 C10.4370569,42.8447092 11.0251707,42.9110788 11.6314959,42.9110788 C14.9917236,42.9110788 17.8034472,40.8927663 18.531561,38.1852853 C23.7540163,37.9435272 27.9170244,33.5264457 27.9170244,28.1055245 C27.9170244,23.9227228 25.4393659,20.3339755 21.9081789,18.8018668 Z" id="Shape"></path>
                    </g>
                    <path d="M19.6661146,40.2959602 C18.8180218,41.8926552 15.3033784,43.6780333 14,43.779486 C14.1433826,43.8136196 14.2887177,43.8434188 14.435273,43.8699672 C14.4469877,43.8721344 14.4587023,43.874437 14.470539,43.8764688 C14.6190468,43.9026108 14.7690189,43.9250957 14.9205774,43.9431106 C14.9244823,43.943517 14.9283871,43.9437879 14.932292,43.9443297 C15.068597,43.9603129 15.2063664,43.9718262 15.3448679,43.9809014 C15.3785475,43.9830686 15.4123492,43.9852359 15.4462729,43.9871322 C15.5906318,43.9948529 15.7357228,44 15.8821561,44 C17.7442996,44 19.4473189,43.3724561 20.7683913,42.3350378 L21,42.1481155 L19.8204797,40 L19.6661146,40.2959602 Z" id="Shape" fill="#009000"></path>
                    <path d="M30.9640443,42.4629257 L34.8208081,36.4688561 C35.1259289,35.9947288 35.0335282,35.372185 34.6035322,35.00379 C34.1443325,34.6104288 33.4538391,34.6360853 33.0260626,35.0625813 L30.185706,37.8948048 C29.8089777,38.270448 29.1635748,37.9580831 29.2352992,37.4349438 L30.0705264,31.339974 C30.1597731,30.6887824 29.6710192,30.0990283 29.0052905,30.0547334 L28.2227469,30.0026151 C27.6347002,29.9634976 27.111369,30.3673284 27.0091559,30.9390195 L25.5182461,39.2817509 C25.4353075,39.7457537 24.8370979,39.8987723 24.5353648,39.5333686 L19.8660359,33.8775506 C19.5429256,33.4861453 18.9964651,33.351535 18.5244157,33.5470075 L17.7068275,33.8853741 C17.0595557,34.1533291 16.8034972,34.9239442 17.1646892,35.5169198 L21.9629818,43.3941527 C22.6577974,44.5348886 22.9443446,45.873168 22.7706407,47.1924639 C22.1488345,51.9161345 21.3763369,56.3710447 18.2152064,60 L34.7099507,60 C31.326054,56.1151701 30.491294,51.2840414 30.0434254,46.1897898 C29.9288298,44.8815389 30.2504215,43.5719074 30.9640443,42.4629257 Z" id="Shape" fill="#BF6101"></path>
                    <path d="M34.8085156,36.4213414 C35.1345073,35.9462544 35.035911,35.3224505 34.5763775,34.9533098 C34.0857675,34.5591524 33.3480428,34.5848609 32.8910054,35.0122201 L31.5357436,36.2795416 L29.8563621,37.8500611 C29.4538647,38.2264647 28.7643148,37.9134675 28.8409453,37.3892693 L29.733304,31.2819626 C29.826284,30.6459385 29.3319298,30.0698624 28.6482458,30 L26.1390332,44.4065159 C26.096849,44.5925849 26.0639004,44.7803832 26.0409362,44.9695649 C25.9931357,45.3632612 25.9867706,45.7624911 26.0240874,46.161721 C26.502841,51.2663992 27.3947004,56.1073067 31.0100632,60 L34.6903249,60 C31.074962,56.1073067 30.1831026,51.2663992 29.7045987,46.1618363 C29.5817902,44.8510525 29.9255043,43.5388854 30.6878157,42.4275438 L34.8085156,36.4213414 Z" id="Shape" fill="#9A4D01"></path>
                    <path d="M24.807512,7 C22.3049366,7 20.150761,8.54136657 19.1741999,10.7585224 C18.1653452,10.0187097 16.9349499,9.58255777 15.6055906,9.58255777 C12.185601,9.58255777 9.41310261,12.4597674 9.41310261,16.0089224 C9.41310261,17.1799622 9.71647665,18.2768886 10.243822,19.222345 C7.27420568,19.6962143 5,22.3592518 5,25.5736353 C5,29.1227904 7.77249841,32 11.192488,32 C14.6124776,32 31,16.9755198 31,13.4263647 C31,9.87720959 28.2277331,7 24.807512,7 Z" id="Shape" fill="#28A528"></path>
                </g>
            </g>
        </g>
    </g>
</svg>
